app/images/dist/Icon/slide__icon-5.svg

<svg width="16" height="16" viewBox="0 0 16 16" fill="none" xmlns="http://www.w3.org/2000/svg">
<path d="M3.33333 2V12.6667H14V14H2V2H3.33333ZM13.2933 3.96L14.7067 5.37333L10.6667 9.41467L8.66667 7.41467L6.04 10.0413L4.62667 8.62667L8.66667 4.58667L10.6667 6.58667L13.2933 3.96Z" fill="white"/>
</svg>

<svg width="16" height="16" fill="none" xmlns="http://www.w3.org/2000/svg"><path d="M3.333 2v10.667H14V14H2V2h1.333zm9.96 1.96l1.414 1.413-4.04 4.042-2-2L6.04 10.04 4.627 8.627l4.04-4.04 2 2 2.626-2.627z" fill="#fff"/></svg>
